X: 1
T: Menuett e. Gustav Blidstr\"om
S: Maggie McRae via google drive
O: Sweden
R: minuet, waltz
M: 3/4
L: 1/8
K: Gm
% - - - - - - - - - - - - - - - - - - - - - - - - -
V: 1
|:\
(G2 d2) d2 | (de) dc d2 | (cd) (ed) cB | (AG) (ABAB) |\
(G2 d2) d2 | (de) dc d2 |
(cd) (ed) (cB) |1 A6 :|2 A6 \
|:\
A2 AB c2 | ^F2 FG A2 | A2 (AB) cG |
^F2 FG A2 |\
(AG) (AB) cG | ^F2 ED (dc) |1 BA (G2 F2) | G6 :|2 BA (G2 F2) | G6 |]
% - - - - - - - - - - - - - - - - - - - - - - - - -
V: 2
|:\
(G2 B2) B2 | (Bc) BA B2 | (AB) (cB) AG | (^F=E) D2 dc |\
{A}B2- B2 B2 | (Bc) BA B2 | (AB) (c2 d2) |1 d3 (c BA) :|2 d3 (c Bc) \
|:\
(A2 {B}A2 d2) | ud3 ud dd | (d4 {ed}A2) | ud3 uddd |\
(d3 g) g2 | (ga a)(g ^f2) |1 g2 (dc) BA | (B3 A) G2 :|2 g2 (dc) (BA) | (G4 D2 |]
% - - - - - - - - - - - - - - - - - - - - - - - - -
V: 3
|:\
[G3G,3] G GG | [G3G,3] (G DF) | [G3G,3] G GG | [G3G,3] (G DF) |\
[G3G,3] G GG | [G3G,3] (G DF) | [G3G,3] G GG |1 [G3G,3] (G DF) :|2 [^FG,][^FG,] [F2G,2] [F2G,2] \
|:\
D4- {E}D2- | {e}D2 (u.[D2C2] .[D2C2]) | D4- {E}D2- | {e}D2 (.[D2C2] [D2C2]) |\
D6 | [D6C6] |1 ([D4B,4] [D2A,2]) | ([D2G,2] [D2B,2] [D2C2]) :|2 ([D4B,4] [D2A,2]) | G,6 |]
% - - - - - - - - - - - - - - - - - - - - - - - - -
